X: 19825
T: Jerry Holland's
R: jig
M: 6/8
K: Dmajor
|"D"A,2 D DEF|"B#min7"~E2 D D (3EFA|"G"dfe dBA|"A"AFD EDB,|
~A,2 D DEF|~E2 D D (3EFA|dfe dBA|1 AFD D2 z:|2 AFD D (3EFG||
|:A (3AAA AFA|Adf efd|B2 B AFd|AFD EFG|
A (3AAA AFA|Adf efd|B2 B AFd|1 D (3DDD D (3EFG:|2 D (3DDD D2 z||

